src/img/privacy_outline_28.svg

<?xml version="1.0" encoding="UTF-8"?>
<svg width="28px" height="28px" viewBox="0 0 28 28" version="1.1" xmlns="http://www.w3.org/2000/svg" xmlns:xlink="http://www.w3.org/1999/xlink">
    <!-- Generator: Sketch 63.1 (92452) - https://sketch.com -->
    <title>privacy_outline_28</title>
    <desc>Created with Sketch.</desc>
    <g id="Page-1" stroke="none" stroke-width="1" fill="none" fill-rule="evenodd">
        <g id="privacy_outline_28">
            <polygon points="0 0 28 0 28 28 0 28"></polygon>
            <path d="M24.4421682,12.057701 C24.9553611,12.8274904 25.0297612,13.8893829 24.6336097,14.7213009 L21.9551885,20.3459855 C20.4349397,23.5385079 16.5390097,26 12.9978137,26 L12.000001,26 C7.57838913,26 4.00000101,22.42021 4.00000101,17.9913338 L4.00000101,10.1277354 C4.00000101,8.60891313 5.23114626,7.38276923 6.75000123,7.38276923 C7.01012951,7.38276923 7.26168625,7.41883352 7.50000101,7.48623055 L7.50000101,6.7543183 C7.50000101,5.23588972 8.72554631,4 10.25,4 C10.5362145,4 10.8120992,4.04395919 11.071405,4.12540636 C11.3540614,2.90810761 12.4431542,2 13.75,2 C15.2201578,2 16.4197787,3.15034909 16.4961395,4.60424014 C16.735663,4.53633664 16.9885461,4.5 17.25,4.5 C18.7710912,4.5 20.000001,5.72950994 20.000001,7.25454712 L20.000001,11.5184918 C21.2989377,10.2402105 23.3574223,10.4305822 24.4421682,12.057701 Z M6.75000123,9.38276923 C6.33290054,9.38276923 6.00000101,9.71630207 6.00000101,10.1277357 L6.00000101,17.9913342 C6.00000101,21.3189746 8.6862915,24 12.000001,24 L12.9978137,24 C15.7710151,24 18.9623494,21.9790663 20.1494675,19.4861183 L22.8278887,13.8614338 C22.9214619,13.6649299 22.9006375,13.3509562 22.7780676,13.1671014 C22.3497515,12.5246272 21.654704,12.517944 21.2287598,13.1568604 L19.0509529,16.4235706 C18.4745603,17.2881596 18.000001,17.1497927 18.000001,16.1010089 L18.000001,7.25454712 C18.000001,6.83177042 17.6642136,6.5 17.25,6.5 C16.8328986,6.5 16.500001,6.834241 16.500001,7.24654818 L16.500001,13.0040579 C16.500001,13.5533013 16.0522847,14 15.500001,14 C14.9438648,14 14.500001,13.5543453 14.500001,13.0046024 L14.500001,4.7516253 C14.500001,4.3327179 14.1642136,4 13.75,4 C13.3328986,4 13.000001,4.33651411 13.000001,4.7516253 L13.000001,13.0046024 C13.000001,13.5443356 12.5522847,14 12.000001,14 C11.4438648,14 11.000001,13.5536144 11.000001,13.0029699 L11.000001,6.75262058 C11.000001,6.34375 10.6642136,6 10.25,6 C9.83289862,6 9.50000101,6.33771981 9.50000101,6.7543183 L9.50000101,13.4915594 C9.50000101,14.0430031 9.05228475,14.5 8.50000101,14.5 C7.94386482,14.5 7.50000101,14.0528214 7.50000101,13.5011985 L7.50000101,10.1378343 C7.50000101,9.71852503 7.16421412,9.38276923 6.75000123,9.38276923 Z" id="↳-Icon-Color" fill="currentColor" fill-rule="nonzero"></path>
        </g>
    </g>
</svg>

<?xml version="1.0" encoding="utf-8"?>
<!-- Generator: Adobe Illustrator 24.2.1, SVG Export Plug-In . SVG Version: 6.00 Build 0)  -->
<svg version="1.1" id="Слой_1" xmlns="http://www.w3.org/2000/svg" xmlns:xlink="http://www.w3.org/1999/xlink" x="0px" y="0px"
	 viewBox="0 0 28 28" style="enable-background:new 0 0 28 28;" xml:space="preserve">
<style type="text/css">
	.st0{fill:none;}
	.st1{fill:#E99787;}
</style>
<desc>Created with Sketch.</desc>
<g id="Page-1">
	<g id="privacy_outline_28">
		<polygon class="st0" points="0,0 28,0 28,28 0,28 		"/>
		<path id="_x21B3_-Icon-Color" class="st1" d="M24.4,12.1c0.5,0.8,0.6,1.8,0.2,2.7L22,20.3c-1.5,3.2-5.4,5.7-9,5.7h-1
			c-4.4,0-8-3.6-8-8v-7.9c0-1.5,1.2-2.7,2.8-2.7c0.3,0,0.5,0,0.7,0.1V6.8C7.5,5.2,8.7,4,10.3,4c0.3,0,0.6,0,0.8,0.1
			C11.4,2.9,12.4,2,13.8,2c1.5,0,2.7,1.2,2.7,2.6c0.2-0.1,0.5-0.1,0.8-0.1c1.5,0,2.8,1.2,2.8,2.8v4.3C21.3,10.2,23.4,10.4,24.4,12.1
			z M6.8,9.4C6.3,9.4,6,9.7,6,10.1V18c0,3.3,2.7,6,6,6h1c2.8,0,6-2,7.2-4.5l2.7-5.6c0.1-0.2,0.1-0.5,0-0.7c-0.4-0.6-1.1-0.6-1.5,0
			l-2.2,3.3c-0.6,0.9-1.1,0.7-1.1-0.3V7.3c0-0.4-0.3-0.8-0.8-0.8c-0.4,0-0.7,0.3-0.7,0.7V13c0,0.5-0.4,1-1,1c-0.6,0-1-0.4-1-1V4.8
			c0-0.4-0.3-0.8-0.8-0.8C13.3,4,13,4.3,13,4.8V13c0,0.5-0.4,1-1,1c-0.6,0-1-0.4-1-1V6.8C11,6.3,10.7,6,10.3,6
			C9.8,6,9.5,6.3,9.5,6.8v6.7c0,0.6-0.4,1-1,1c-0.6,0-1-0.4-1-1v-3.4C7.5,9.7,7.2,9.4,6.8,9.4z"/>
	</g>
</g>
</svg>
